src/images/icons/filter-categories/filter-category-entertainment.svg

<?xml version="1.0" encoding="UTF-8"?>
<svg width="40px" height="40px" viewBox="0 0 40 40" version="1.1" xmlns="http://www.w3.org/2000/svg" xmlns:xlink="http://www.w3.org/1999/xlink">
    <!-- Generator: Sketch 49.3 (51167) - http://www.bohemiancoding.com/sketch -->
    <title>filter-category-12</title>
    <desc>Created with Sketch.</desc>
    <g id="Symbols" stroke="none" stroke-width="1" fill="none" fill-rule="evenodd">
        <g id="Elements-/-Sort-/-Card-/-~Parts-/-Icon_11">
            <mask id="mask-2" fill="white">
                <path d="M37.371134,37.3061168 C38.8395876,37.0064605 39.9484536,35.705567 39.9484536,34.1495533 C39.9484536,33.3254983 39.638488,32.5535395 39.0831615,31.9620619 C39.2287285,31.6373883 39.3041924,31.2874227 39.3041924,30.9279725 C39.3041924,29.5065292 38.1483162,28.3506529 36.7268729,28.3506529 C35.3054296,28.3506529 34.1495533,29.5065292 34.1495533,30.9279725 C34.1495533,31.2875601 34.2248797,31.6373883 34.3705842,31.9620619 C33.8151203,32.5535395 33.5052921,33.3254983 33.5052921,34.1495533 C33.5052921,35.7050172 34.6141581,37.0064605 36.0826117,37.3061168 L36.0826117,38.6597938 L29.4215808,38.6597938 L25.5877663,29.6230928 C26.1643986,29.3421306 26.7217869,29.0302405 27.2468729,28.6701031 C27.3267354,30.3756701 28.7282474,31.742268 30.4537457,31.742268 C32.2301031,31.742268 33.6754639,30.2970447 33.6754639,28.5205498 C33.6754639,26.7957388 32.308866,25.393677 30.603299,25.313677 C31.5975258,23.8651546 32.2978694,22.2034364 32.6329897,20.4136082 C33.2057732,20.9355326 33.9597251,21.2628179 34.7940893,21.2628179 C36.5704467,21.2628179 38.0158076,19.8175945 38.0158076,18.0410997 C38.0158076,16.2646048 36.5705842,14.8193814 34.7940893,14.8193814 C33.9597251,14.8193814 33.2057732,15.1466667 32.6329897,15.6685911 C32.2978694,13.8786254 31.5975258,12.2169072 30.603299,10.7685223 C32.308866,10.6886598 33.6754639,9.28714777 33.6754639,7.56164948 C33.6754639,5.7852921 32.2302405,4.33993127 30.4537457,4.33993127 C28.7289347,4.33993127 27.3274227,5.70652921 27.2468729,7.41209622 C25.7983505,6.41786942 24.1366323,5.71752577 22.3468041,5.3824055 C22.8687285,4.80962199 23.1960137,4.0556701 23.1960137,3.22130584 C23.1958763,1.44522337 21.7506529,0 19.9742955,0 C18.1979381,0 16.7525773,1.44522337 16.7525773,3.22171821 C16.7525773,4.05608247 17.0798625,4.81003436 17.6017869,5.38281787 C15.8118213,5.71793814 14.1501031,6.41828179 12.7017182,7.41250859 C12.6218557,5.70694158 11.2203436,4.34034364 9.49484536,4.34034364 C7.71848797,4.34034364 6.27312715,5.78556701 6.27312715,7.56206186 C6.27312715,9.28687285 7.63972509,10.6889347 9.3452921,10.7689347 C8.35106529,12.2173196 7.65072165,13.8791753 7.31560137,15.6690034 C6.74281787,15.147079 5.98886598,14.8197938 5.15450172,14.8197938 C3.37814433,14.8197938 1.93278351,16.2650172 1.93278351,18.041512 C1.93278351,19.8180069 3.37800687,21.2632302 5.15450172,21.2632302 C5.98886598,21.2632302 6.74281787,20.935945 7.31560137,20.4140206 C7.65072165,22.2039863 8.35106529,23.8657045 9.3452921,25.3140893 C7.63972509,25.3939519 6.27312715,26.7954639 6.27312715,28.5209622 C6.27312715,30.2973196 7.71835052,31.7426804 9.4947079,31.7426804 C11.2195189,31.7426804 12.6210309,30.3760825 12.7015808,28.6705155 C13.2261168,29.0306529 13.784055,29.3432302 14.3606873,29.6235052 L10.5270103,38.6597938 L3.86597938,38.6597938 L3.86597938,37.3061168 C5.33443299,37.0064605 6.44329897,35.705567 6.44329897,34.1495533 C6.44329897,33.3254983 6.13333333,32.5535395 5.57800687,31.9620619 C5.72357388,31.6373883 5.7990378,31.2874227 5.7990378,30.9279725 C5.7990378,29.5065292 4.64316151,28.3506529 3.22171821,28.3506529 C1.80027491,28.3506529 0.644398625,29.5063918 0.644398625,30.9278351 C0.644398625,31.2874227 0.719725086,31.6372509 0.865429553,31.9619244 C0.309965636,32.5535395 0,33.3253608 0,34.1495533 C0,35.7050172 1.10886598,37.0064605 2.57731959,37.3061168 L2.57731959,38.6597938 L0,38.6597938 L0,39.9484536 L39.9484536,39.9484536 L39.9484536,38.6597938 L37.371134,38.6597938 L37.371134,37.3061168 Z M34.7938144,19.9742955 C34.2248797,19.9742955 33.7178007,19.7223368 33.3634364,19.3298969 L36.2236426,19.3298969 C35.8698282,19.7223368 35.3627491,19.9742955 34.7938144,19.9742955 Z M34.7938144,16.1083162 C35.8595189,16.1083162 36.7268729,16.9755326 36.7268729,18.0413746 L32.8608935,18.0413746 C32.8608935,16.9755326 33.72811,16.1083162 34.7938144,16.1083162 Z M5.15463918,19.9742955 C4.58570447,19.9742955 4.07862543,19.7223368 3.72426117,19.3298969 L6.58446735,19.3298969 C6.23065292,19.7223368 5.72357388,19.9742955 5.15463918,19.9742955 Z M3.22171821,18.0413746 C3.22171821,16.9755326 4.08893471,16.1083162 5.15463918,16.1083162 C6.22034364,16.1083162 7.08769759,16.9755326 7.08769759,18.0413746 L3.22171821,18.0413746 Z M2.57731959,34.1495533 L2.57731959,35.9639863 C1.82927835,35.6971821 1.28865979,34.9884536 1.28865979,34.1495533 C1.28865979,33.5406186 1.57415808,32.9781443 2.07216495,32.606323 L2.59216495,32.217732 L2.19972509,31.7010309 C2.02570447,31.4710653 1.93292096,31.2035739 1.93292096,30.9278351 C1.93292096,30.2171821 2.51092784,29.6391753 3.22158076,29.6391753 C3.93223368,29.6391753 4.51024055,30.2171821 4.51024055,30.9278351 C4.51024055,31.2035739 4.41745704,31.4710653 4.24343643,31.7010309 L3.85168385,32.2184192 L4.37168385,32.6070103 C4.86914089,32.9781443 5.15450172,33.5406186 5.15450172,34.1495533 C5.15450172,34.9884536 4.61388316,35.6971821 3.86584192,35.9639863 L3.86584192,34.1495533 L2.57731959,34.1495533 Z M30.4536082,30.2835739 C29.8846735,30.2835739 29.3775945,30.2835739 29.0232302,29.6391753 L31.8834364,29.6391753 C31.529622,30.2835739 31.022543,30.2835739 30.4536082,30.2835739 Z M32.3866667,28.3505155 L28.5206873,28.3505155 C28.5206873,27.7061168 29.3879038,26.417457 30.4537457,26.417457 C31.5193127,26.4175945 32.3866667,27.7062543 32.3866667,28.3505155 Z M30.4536082,9.66501718 C29.8846735,9.66501718 29.3775945,9.02061856 29.0232302,9.02061856 L31.8834364,9.02061856 C31.529622,9.02061856 31.022543,9.66501718 30.4536082,9.66501718 Z M30.4536082,5.7990378 C31.5193127,5.7990378 32.3866667,6.44343643 32.3866667,7.73209622 L28.5206873,7.73209622 C28.5206873,6.44329897 29.3872165,5.7990378 30.4536082,5.7990378 Z M19.9742955,1.28865979 C21.04,1.28865979 21.907354,2.15587629 21.907354,3.22171821 L18.0412371,3.22171821 C18.0412371,2.15587629 18.9084536,1.28865979 19.9742955,1.28865979 Z M21.4039863,4.51037801 C21.0503093,4.90281787 20.5430928,5.15477663 19.9741581,5.15477663 C19.4052234,5.15477663 18.8981443,4.90268041 18.5437801,4.51037801 L21.4039863,4.51037801 Z M9.49484536,5.7990378 C10.5605498,5.7990378 11.4279038,6.44343643 11.4279038,7.73209622 L7.5619244,7.73209622 C7.5619244,6.44329897 8.42914089,5.7990378 9.49484536,5.7990378 Z M8.06501718,9.02061856 L10.9252234,9.02061856 C10.5715464,9.02061856 10.0637801,9.66501718 9.49484536,9.66501718 C8.92591065,9.66501718 8.41883162,9.02061856 8.06501718,9.02061856 Z M9.49484536,30.2835739 C8.92591065,30.2835739 8.41883162,30.2835739 8.06446735,29.6391753 L10.9246735,29.6391753 C10.5715464,30.2835739 10.0644674,30.2835739 9.49484536,30.2835739 Z M7.5619244,28.3506529 C7.5619244,27.7062543 8.42914089,26.4175945 9.49484536,26.4175945 C10.5605498,26.4175945 11.4279038,27.7062543 11.4279038,28.3506529 L7.5619244,28.3506529 Z M8.37635739,18.0412371 C8.37635739,11.646323 13.5793814,6.44329897 19.9742955,6.44329897 C26.3692096,6.44329897 31.5722337,11.646323 31.5722337,18.0412371 C31.5722337,22.6010997 28.9208247,26.5432302 25.0845361,28.4368385 L21.537457,20.0760137 C22.1502405,19.6043986 22.5516151,18.8717526 22.5516151,18.0412371 C22.5516151,16.6197938 21.3957388,15.4639175 19.9742955,15.4639175 C18.5528522,15.4639175 17.3969759,16.6197938 17.3969759,18.0412371 C17.3969759,18.8717526 17.7983505,19.6043986 18.411134,20.0760137 L14.864055,28.4368385 C11.0277663,26.5432302 8.37635739,22.6010997 8.37635739,18.0412371 Z M18.0412371,32.8608935 C18.0412371,31.795189 18.9084536,30.9278351 19.9742955,30.9278351 C21.0401375,30.9278351 21.9072165,31.7950515 21.9072165,32.8608935 L18.0412371,32.8608935 Z M21.4046735,34.1495533 C21.0509966,34.5419931 20.5432302,34.7939519 19.9742955,34.7939519 C19.4053608,34.7939519 18.8982818,34.5419931 18.5439175,34.1495533 L21.4046735,34.1495533 Z M19.9742955,29.6391753 C18.5954639,29.6391753 17.2778007,29.3846048 16.0503093,28.9413058 L19.5973883,20.5804811 C19.7210997,20.598488 19.8454983,20.6185567 19.9742955,20.6185567 C20.1030928,20.6185567 20.2274914,20.5986254 20.3512027,20.5804811 L23.8982818,28.9413058 C22.6707904,29.3846048 21.3531271,29.6391753 19.9742955,29.6391753 Z M18.6856357,18.0412371 C18.6856357,17.3305842 19.2636426,16.7525773 19.9742955,16.7525773 C20.6849485,16.7525773 21.2629553,17.3305842 21.2629553,18.0412371 C21.2629553,18.75189 20.6849485,19.3298969 19.9742955,19.3298969 C19.2636426,19.3298969 18.6856357,18.75189 18.6856357,18.0412371 Z M11.9271478,38.6597938 L15.547079,30.1275601 C16.2094845,30.371134 16.8937457,30.5670103 17.6024742,30.6991065 C17.0798625,31.2725773 16.7525773,32.0263918 16.7525773,32.8608935 C16.7525773,34.6372509 18.1978007,36.0826117 19.9742955,36.0826117 C21.7507904,36.0826117 23.1960137,34.6373883 23.1960137,32.8608935 C23.1960137,32.0265292 22.8687285,31.2725773 22.3468041,30.6997938 C23.0549828,30.5670103 23.739244,30.3718213 24.4021993,30.1282474 L28.0214433,38.6597938 L11.9271478,38.6597938 Z M36.0824742,34.1495533 L36.0824742,35.9639863 C35.334433,35.6971821 34.7938144,34.9884536 34.7938144,34.1495533 C34.7938144,33.5406186 35.0793127,32.9781443 35.5773196,32.606323 L36.0973196,32.217732 L35.7048797,31.7010309 C35.5308591,31.4710653 35.4380756,31.2035739 35.4380756,30.9278351 C35.4380756,30.2171821 36.0160825,29.6391753 36.7267354,29.6391753 C37.4373883,29.6391753 38.0153952,30.2171821 38.0153952,30.9278351 C38.0153952,31.2035739 37.9226117,31.4710653 37.7485911,31.7010309 L37.3568385,32.2184192 L37.8768385,32.6070103 C38.3742955,32.9781443 38.6596564,33.5406186 38.6596564,34.1495533 C38.6596564,34.9884536 38.1190378,35.6971821 37.3709966,35.9639863 L37.3709966,34.1495533 L36.0824742,34.1495533 Z"></path>
            </mask>
            <path d="M37.371134,37.3061168 C38.8395876,37.0064605 39.9484536,35.705567 39.9484536,34.1495533 C39.9484536,33.3254983 39.638488,32.5535395 39.0831615,31.9620619 C39.2287285,31.6373883 39.3041924,31.2874227 39.3041924,30.9279725 C39.3041924,29.5065292 38.1483162,28.3506529 36.7268729,28.3506529 C35.3054296,28.3506529 34.1495533,29.5065292 34.1495533,30.9279725 C34.1495533,31.2875601 34.2248797,31.6373883 34.3705842,31.9620619 C33.8151203,32.5535395 33.5052921,33.3254983 33.5052921,34.1495533 C33.5052921,35.7050172 34.6141581,37.0064605 36.0826117,37.3061168 L36.0826117,38.6597938 L29.4215808,38.6597938 L25.5877663,29.6230928 C26.1643986,29.3421306 26.7217869,29.0302405 27.2468729,28.6701031 C27.3267354,30.3756701 28.7282474,31.742268 30.4537457,31.742268 C32.2301031,31.742268 33.6754639,30.2970447 33.6754639,28.5205498 C33.6754639,26.7957388 32.308866,25.393677 30.603299,25.313677 C31.5975258,23.8651546 32.2978694,22.2034364 32.6329897,20.4136082 C33.2057732,20.9355326 33.9597251,21.2628179 34.7940893,21.2628179 C36.5704467,21.2628179 38.0158076,19.8175945 38.0158076,18.0410997 C38.0158076,16.2646048 36.5705842,14.8193814 34.7940893,14.8193814 C33.9597251,14.8193814 33.2057732,15.1466667 32.6329897,15.6685911 C32.2978694,13.8786254 31.5975258,12.2169072 30.603299,10.7685223 C32.308866,10.6886598 33.6754639,9.28714777 33.6754639,7.56164948 C33.6754639,5.7852921 32.2302405,4.33993127 30.4537457,4.33993127 C28.7289347,4.33993127 27.3274227,5.70652921 27.2468729,7.41209622 C25.7983505,6.41786942 24.1366323,5.71752577 22.3468041,5.3824055 C22.8687285,4.80962199 23.1960137,4.0556701 23.1960137,3.22130584 C23.1958763,1.44522337 21.7506529,0 19.9742955,0 C18.1979381,0 16.7525773,1.44522337 16.7525773,3.22171821 C16.7525773,4.05608247 17.0798625,4.81003436 17.6017869,5.38281787 C15.8118213,5.71793814 14.1501031,6.41828179 12.7017182,7.41250859 C12.6218557,5.70694158 11.2203436,4.34034364 9.49484536,4.34034364 C7.71848797,4.34034364 6.27312715,5.78556701 6.27312715,7.56206186 C6.27312715,9.28687285 7.63972509,10.6889347 9.3452921,10.7689347 C8.35106529,12.2173196 7.65072165,13.8791753 7.31560137,15.6690034 C6.74281787,15.147079 5.98886598,14.8197938 5.15450172,14.8197938 C3.37814433,14.8197938 1.93278351,16.2650172 1.93278351,18.041512 C1.93278351,19.8180069 3.37800687,21.2632302 5.15450172,21.2632302 C5.98886598,21.2632302 6.74281787,20.935945 7.31560137,20.4140206 C7.65072165,22.2039863 8.35106529,23.8657045 9.3452921,25.3140893 C7.63972509,25.3939519 6.27312715,26.7954639 6.27312715,28.5209622 C6.27312715,30.2973196 7.71835052,31.7426804 9.4947079,31.7426804 C11.2195189,31.7426804 12.6210309,30.3760825 12.7015808,28.6705155 C13.2261168,29.0306529 13.784055,29.3432302 14.3606873,29.6235052 L10.5270103,38.6597938 L3.86597938,38.6597938 L3.86597938,37.3061168 C5.33443299,37.0064605 6.44329897,35.705567 6.44329897,34.1495533 C6.44329897,33.3254983 6.13333333,32.5535395 5.57800687,31.9620619 C5.72357388,31.6373883 5.7990378,31.2874227 5.7990378,30.9279725 C5.7990378,29.5065292 4.64316151,28.3506529 3.22171821,28.3506529 C1.80027491,28.3506529 0.644398625,29.5063918 0.644398625,30.9278351 C0.644398625,31.2874227 0.719725086,31.6372509 0.865429553,31.9619244 C0.309965636,32.5535395 0,33.3253608 0,34.1495533 C0,35.7050172 1.10886598,37.0064605 2.57731959,37.3061168 L2.57731959,38.6597938 L0,38.6597938 L0,39.9484536 L39.9484536,39.9484536 L39.9484536,38.6597938 L37.371134,38.6597938 L37.371134,37.3061168 Z M34.7938144,19.9742955 C34.2248797,19.9742955 33.7178007,19.7223368 33.3634364,19.3298969 L36.2236426,19.3298969 C35.8698282,19.7223368 35.3627491,19.9742955 34.7938144,19.9742955 Z M34.7938144,16.1083162 C35.8595189,16.1083162 36.7268729,16.9755326 36.7268729,18.0413746 L32.8608935,18.0413746 C32.8608935,16.9755326 33.72811,16.1083162 34.7938144,16.1083162 Z M5.15463918,19.9742955 C4.58570447,19.9742955 4.07862543,19.7223368 3.72426117,19.3298969 L6.58446735,19.3298969 C6.23065292,19.7223368 5.72357388,19.9742955 5.15463918,19.9742955 Z M3.22171821,18.0413746 C3.22171821,16.9755326 4.08893471,16.1083162 5.15463918,16.1083162 C6.22034364,16.1083162 7.08769759,16.9755326 7.08769759,18.0413746 L3.22171821,18.0413746 Z M2.57731959,34.1495533 L2.57731959,35.9639863 C1.82927835,35.6971821 1.28865979,34.9884536 1.28865979,34.1495533 C1.28865979,33.5406186 1.57415808,32.9781443 2.07216495,32.606323 L2.59216495,32.217732 L2.19972509,31.7010309 C2.02570447,31.4710653 1.93292096,31.2035739 1.93292096,30.9278351 C1.93292096,30.2171821 2.51092784,29.6391753 3.22158076,29.6391753 C3.93223368,29.6391753 4.51024055,30.2171821 4.51024055,30.9278351 C4.51024055,31.2035739 4.41745704,31.4710653 4.24343643,31.7010309 L3.85168385,32.2184192 L4.37168385,32.6070103 C4.86914089,32.9781443 5.15450172,33.5406186 5.15450172,34.1495533 C5.15450172,34.9884536 4.61388316,35.6971821 3.86584192,35.9639863 L3.86584192,34.1495533 L2.57731959,34.1495533 Z M30.4536082,30.2835739 C29.8846735,30.2835739 29.3775945,30.2835739 29.0232302,29.6391753 L31.8834364,29.6391753 C31.529622,30.2835739 31.022543,30.2835739 30.4536082,30.2835739 Z M32.3866667,28.3505155 L28.5206873,28.3505155 C28.5206873,27.7061168 29.3879038,26.417457 30.4537457,26.417457 C31.5193127,26.4175945 32.3866667,27.7062543 32.3866667,28.3505155 Z M30.4536082,9.66501718 C29.8846735,9.66501718 29.3775945,9.02061856 29.0232302,9.02061856 L31.8834364,9.02061856 C31.529622,9.02061856 31.022543,9.66501718 30.4536082,9.66501718 Z M30.4536082,5.7990378 C31.5193127,5.7990378 32.3866667,6.44343643 32.3866667,7.73209622 L28.5206873,7.73209622 C28.5206873,6.44329897 29.3872165,5.7990378 30.4536082,5.7990378 Z M19.9742955,1.28865979 C21.04,1.28865979 21.907354,2.15587629 21.907354,3.22171821 L18.0412371,3.22171821 C18.0412371,2.15587629 18.9084536,1.28865979 19.9742955,1.28865979 Z M21.4039863,4.51037801 C21.0503093,4.90281787 20.5430928,5.15477663 19.9741581,5.15477663 C19.4052234,5.15477663 18.8981443,4.90268041 18.5437801,4.51037801 L21.4039863,4.51037801 Z M9.49484536,5.7990378 C10.5605498,5.7990378 11.4279038,6.44343643 11.4279038,7.73209622 L7.5619244,7.73209622 C7.5619244,6.44329897 8.42914089,5.7990378 9.49484536,5.7990378 Z M8.06501718,9.02061856 L10.9252234,9.02061856 C10.5715464,9.02061856 10.0637801,9.66501718 9.49484536,9.66501718 C8.92591065,9.66501718 8.41883162,9.02061856 8.06501718,9.02061856 Z M9.49484536,30.2835739 C8.92591065,30.2835739 8.41883162,30.2835739 8.06446735,29.6391753 L10.9246735,29.6391753 C10.5715464,30.2835739 10.0644674,30.2835739 9.49484536,30.2835739 Z M7.5619244,28.3506529 C7.5619244,27.7062543 8.42914089,26.4175945 9.49484536,26.4175945 C10.5605498,26.4175945 11.4279038,27.7062543 11.4279038,28.3506529 L7.5619244,28.3506529 Z M8.37635739,18.0412371 C8.37635739,11.646323 13.5793814,6.44329897 19.9742955,6.44329897 C26.3692096,6.44329897 31.5722337,11.646323 31.5722337,18.0412371 C31.5722337,22.6010997 28.9208247,26.5432302 25.0845361,28.4368385 L21.537457,20.0760137 C22.1502405,19.6043986 22.5516151,18.8717526 22.5516151,18.0412371 C22.5516151,16.6197938 21.3957388,15.4639175 19.9742955,15.4639175 C18.5528522,15.4639175 17.3969759,16.6197938 17.3969759,18.0412371 C17.3969759,18.8717526 17.7983505,19.6043986 18.411134,20.0760137 L14.864055,28.4368385 C11.0277663,26.5432302 8.37635739,22.6010997 8.37635739,18.0412371 Z M18.0412371,32.8608935 C18.0412371,31.795189 18.9084536,30.9278351 19.9742955,30.9278351 C21.0401375,30.9278351 21.9072165,31.7950515 21.9072165,32.8608935 L18.0412371,32.8608935 Z M21.4046735,34.1495533 C21.0509966,34.5419931 20.5432302,34.7939519 19.9742955,34.7939519 C19.4053608,34.7939519 18.8982818,34.5419931 18.5439175,34.1495533 L21.4046735,34.1495533 Z M19.9742955,29.6391753 C18.5954639,29.6391753 17.2778007,29.3846048 16.0503093,28.9413058 L19.5973883,20.5804811 C19.7210997,20.598488 19.8454983,20.6185567 19.9742955,20.6185567 C20.1030928,20.6185567 20.2274914,20.5986254 20.3512027,20.5804811 L23.8982818,28.9413058 C22.6707904,29.3846048 21.3531271,29.6391753 19.9742955,29.6391753 Z M18.6856357,18.0412371 C18.6856357,17.3305842 19.2636426,16.7525773 19.9742955,16.7525773 C20.6849485,16.7525773 21.2629553,17.3305842 21.2629553,18.0412371 C21.2629553,18.75189 20.6849485,19.3298969 19.9742955,19.3298969 C19.2636426,19.3298969 18.6856357,18.75189 18.6856357,18.0412371 Z M11.9271478,38.6597938 L15.547079,30.1275601 C16.2094845,30.371134 16.8937457,30.5670103 17.6024742,30.6991065 C17.0798625,31.2725773 16.7525773,32.0263918 16.7525773,32.8608935 C16.7525773,34.6372509 18.1978007,36.0826117 19.9742955,36.0826117 C21.7507904,36.0826117 23.1960137,34.6373883 23.1960137,32.8608935 C23.1960137,32.0265292 22.8687285,31.2725773 22.3468041,30.6997938 C23.0549828,30.5670103 23.739244,30.3718213 24.4021993,30.1282474 L28.0214433,38.6597938 L11.9271478,38.6597938 Z M36.0824742,34.1495533 L36.0824742,35.9639863 C35.334433,35.6971821 34.7938144,34.9884536 34.7938144,34.1495533 C34.7938144,33.5406186 35.0793127,32.9781443 35.5773196,32.606323 L36.0973196,32.217732 L35.7048797,31.7010309 C35.5308591,31.4710653 35.4380756,31.2035739 35.4380756,30.9278351 C35.4380756,30.2171821 36.0160825,29.6391753 36.7267354,29.6391753 C37.4373883,29.6391753 38.0153952,30.2171821 38.0153952,30.9278351 C38.0153952,31.2035739 37.9226117,31.4710653 37.7485911,31.7010309 L37.3568385,32.2184192 L37.8768385,32.6070103 C38.3742955,32.9781443 38.6596564,33.5406186 38.6596564,34.1495533 C38.6596564,34.9884536 38.1190378,35.6971821 37.3709966,35.9639863 L37.3709966,34.1495533 L36.0824742,34.1495533 Z" fill="#000000" fill-rule="nonzero"></path>
        </g>
    </g>
</svg>

<svg width="40" height="40" viewBox="0 0 40 40" xmlns="http://www.w3.org/2000/svg">
    <title>
        filter-category-12
    </title>
    <path d="M37.371 37.306a3.227 3.227 0 0 0 2.577-3.156c0-.825-.31-1.596-.865-2.188a2.52 2.52 0 0 0 .221-1.034 2.58 2.58 0 0 0-2.577-2.577 2.58 2.58 0 0 0-2.577 2.577c0 .36.075.71.22 1.034a3.177 3.177 0 0 0-.865 2.188 3.228 3.228 0 0 0 2.578 3.156v1.354h-6.661l-3.834-9.037a12.954 12.954 0 0 0 1.659-.953 3.218 3.218 0 0 0 3.207 3.072 3.225 3.225 0 0 0 3.221-3.221 3.219 3.219 0 0 0-3.072-3.207 12.817 12.817 0 0 0 2.03-4.9 3.2 3.2 0 0 0 2.161.849 3.225 3.225 0 0 0 3.222-3.222 3.225 3.225 0 0 0-3.222-3.222 3.2 3.2 0 0 0-2.161.85 12.815 12.815 0 0 0-2.03-4.9 3.218 3.218 0 0 0 3.072-3.207 3.225 3.225 0 0 0-3.221-3.222 3.22 3.22 0 0 0-3.207 3.072 12.817 12.817 0 0 0-4.9-2.03 3.2 3.2 0 0 0 .849-2.16A3.225 3.225 0 0 0 19.974 0a3.225 3.225 0 0 0-3.221 3.222 3.2 3.2 0 0 0 .849 2.16 12.815 12.815 0 0 0-4.9 2.03A3.218 3.218 0 0 0 9.495 4.34a3.225 3.225 0 0 0-3.222 3.222 3.219 3.219 0 0 0 3.072 3.207 12.816 12.816 0 0 0-2.03 4.9 3.2 3.2 0 0 0-2.16-.85 3.225 3.225 0 0 0-3.222 3.223 3.225 3.225 0 0 0 3.222 3.221 3.2 3.2 0 0 0 2.16-.849 12.815 12.815 0 0 0 2.03 4.9 3.218 3.218 0 0 0-3.072 3.207 3.225 3.225 0 0 0 3.222 3.222 3.22 3.22 0 0 0 3.207-3.072c.524.36 1.082.672 1.659.953l-3.834 9.036H3.866v-1.354a3.227 3.227 0 0 0 2.577-3.156c0-.825-.31-1.596-.865-2.188a2.52 2.52 0 0 0 .221-1.034 2.58 2.58 0 0 0-2.577-2.577 2.58 2.58 0 0 0-2.578 2.577c0 .36.076.71.221 1.034A3.177 3.177 0 0 0 0 34.15a3.228 3.228 0 0 0 2.577 3.156v1.354H0v1.288h39.948V38.66h-2.577v-1.354zm-2.577-17.332a1.923 1.923 0 0 1-1.43-.644h2.86a1.92 1.92 0 0 1-1.43.644zm0-3.866c1.066 0 1.933.868 1.933 1.933H32.86c0-1.065.867-1.933 1.933-1.933zm-29.64 3.866a1.923 1.923 0 0 1-1.43-.644h2.86a1.92 1.92 0 0 1-1.43.644zm-1.932-1.933c0-1.065.867-1.933 1.933-1.933 1.065 0 1.933.868 1.933 1.933H3.222zM2.577 34.15v1.814A1.93 1.93 0 0 1 1.29 34.15c0-.61.285-1.172.783-1.544l.52-.388L2.2 31.7a1.276 1.276 0 0 1-.267-.773 1.29 1.29 0 0 1 2.577 0c0 .276-.093.543-.267.773l-.391.517.52.389c.497.371.783.934.783 1.543a1.93 1.93 0 0 1-1.29 1.814V34.15H2.578zm27.877-3.866c-.57 0-1.076 0-1.43-.645h2.86c-.354.645-.861.645-1.43.645zm1.933-1.933H28.52c0-.645.867-1.934 1.933-1.934 1.065 0 1.933 1.29 1.933 1.934zM30.454 9.665c-.57 0-1.076-.644-1.43-.644h2.86c-.354 0-.861.644-1.43.644zm0-3.866c1.065 0 1.933.644 1.933 1.933H28.52c0-1.289.866-1.933 1.933-1.933zm-10.48-4.51c1.066 0 1.933.867 1.933 1.933h-3.866c0-1.066.867-1.933 1.933-1.933zm1.43 3.221a1.92 1.92 0 0 1-1.43.645 1.923 1.923 0 0 1-1.43-.645h2.86zM9.494 5.8c1.067 0 1.934.644 1.934 1.933H7.562c0-1.289.867-1.933 1.933-1.933zM8.066 9.021h2.86c-.353 0-.861.644-1.43.644-.57 0-1.076-.644-1.43-.644zm1.43 21.263c-.57 0-1.076 0-1.43-.645h2.86c-.353.645-.86.645-1.43.645zM7.562 28.35c0-.645.867-1.933 1.933-1.933s1.933 1.288 1.933 1.933H7.562zm.814-10.31c0-6.395 5.203-11.598 11.598-11.598 6.395 0 11.598 5.203 11.598 11.598 0 4.56-2.651 8.502-6.487 10.396l-3.548-8.361a2.564 2.564 0 0 0 1.015-2.035 2.58 2.58 0 0 0-2.578-2.577 2.58 2.58 0 0 0-2.577 2.577c0 .83.401 1.563 1.014 2.035l-3.547 8.36c-3.836-1.893-6.488-5.835-6.488-10.395zm9.665 14.82c0-1.066.867-1.933 1.933-1.933s1.933.867 1.933 1.933h-3.866zm3.364 1.289a1.922 1.922 0 0 1-1.43.644 1.923 1.923 0 0 1-1.431-.644h2.86zm-1.43-4.51c-1.38 0-2.697-.255-3.925-.699l3.547-8.36c.124.017.248.038.377.038.13 0 .253-.02.377-.039l3.547 8.361a11.522 11.522 0 0 1-3.924.698zm-1.29-11.599a1.29 1.29 0 0 1 2.577 0 1.29 1.29 0 0 1-1.288 1.289 1.29 1.29 0 0 1-1.288-1.289zM11.928 38.66l3.62-8.532c.662.243 1.347.439 2.055.571a3.2 3.2 0 0 0-.85 2.162 3.225 3.225 0 0 0 3.222 3.222 3.225 3.225 0 0 0 3.222-3.222 3.2 3.2 0 0 0-.85-2.161 12.786 12.786 0 0 0 2.056-.572l3.62 8.532H11.926zm24.155-4.51v1.814a1.93 1.93 0 0 1-1.288-1.814c0-.61.285-1.172.783-1.544l.52-.388-.392-.517a1.276 1.276 0 0 1-.267-.773 1.29 1.29 0 0 1 2.577 0c0 .276-.092.543-.266.773l-.392.517.52.389c.497.371.783.934.783 1.543a1.93 1.93 0 0 1-1.289 1.814V34.15h-1.289z" fill="#000" fill-rule="nonzero"/>
</svg>
